photos/topbar/000.svg

<svg width="245" height="45" viewBox="0 0 245 45" fill="none" xmlns="http://www.w3.org/2000/svg">
<path fill-rule="evenodd" clip-rule="evenodd" d="M25.7253 0.0458662C25.5377 0.0927964 24.5762 0.257052 23.6147 0.397842C21.3166 0.773283 18.5963 1.64151 16.134 2.76784C7.6449 6.68651 1.71189 14.7116 0.234506 24.2384C-0.234506 27.3592 0 29.6823 0.938023 31.1137C1.47739 31.9349 2.57956 32.545 2.93132 32.2165C3.00167 32.1461 2.86099 31.2779 2.62648 30.2924C2.11057 28.0632 2.32162 26.2329 3.56451 22.5254C6.28477 14.4065 11.5377 8.65757 18.8074 5.8183C25.9364 3.02595 31.7521 3.65949 35.8325 7.67201C37.3568 9.15031 39.866 12.7874 43.5477 18.8179C49.3869 28.3917 55.7655 33.8825 64.3015 36.7453C67.2797 37.7308 70 38.0593 72.5795 37.7073C79.1457 36.8391 82.8978 33.1785 90.3316 20.3432C91.7152 17.9497 93.5913 15.0166 94.4824 13.8433C96.2646 11.4499 98.938 9.12686 100.908 8.21172C104.285 6.66303 109.116 6.17028 111.883 7.06196C115.447 8.23521 116.995 10.1593 122.271 19.9912C128.204 31.0432 133.387 35.924 139.601 36.2525C143.072 36.4167 145.44 35.4781 147.997 32.85C150.271 30.5505 151.28 28.6263 153.859 21.7511C156.931 13.5852 158.291 11.3795 161.363 9.66655C164.482 7.93013 169.196 7.34354 172.76 8.23521C177.99 9.54925 187.253 16.0021 195.859 24.3322C203.317 31.536 204.982 32.9204 208.405 34.6568C209.367 35.1496 211.055 35.8301 212.157 36.2056C214.033 36.8391 214.385 36.8626 218.137 36.886C222.827 36.886 224.352 36.5575 228.221 34.6568C229.511 34.0468 230.566 33.554 230.59 33.554C230.613 33.5775 230.519 34.4926 230.378 35.5485C230.074 38.0593 230.425 41.626 231.152 43.292C231.739 44.6295 232.161 44.9345 232.7 44.3244C233.38 43.597 236.077 39.2795 237.906 36.0648C238.868 34.3283 240.462 31.5829 241.4 29.9638C244.238 25.177 244.636 24.2384 244.636 22.455C244.636 19.7096 243.229 18.0671 239.946 17.0346C239.055 16.753 236.03 15.6267 233.263 14.5238C228.784 12.7874 228.08 12.5762 227.025 12.6466C226.298 12.717 225.548 12.9517 225.102 13.2567C224.188 13.9137 223.531 15.5563 223.742 16.6591C224.094 18.5833 225.548 19.6861 230.097 21.5164C233.31 22.8305 233.263 22.7601 232.559 23.5109C231.504 24.6373 227.564 27.0776 225.407 27.9224C218.63 30.6209 213.072 29.1425 205.943 22.7366C204.653 21.5868 202.379 19.5453 200.901 18.2313C191.544 9.87773 182.234 3.87068 176.044 2.22813C173.816 1.6415 168.844 1.40687 166.429 1.78232C162.489 2.39241 158.127 4.38693 155.524 6.7569C152.945 9.12687 151.327 11.9661 148.278 19.475C146.003 25.0831 145.3 26.4675 144.01 27.852C142.04 29.9638 140.516 30.222 137.889 28.9079C134.888 27.4061 132.097 24.0037 127.735 16.4714C123.467 9.15031 121.31 6.28761 118.449 4.24615C110.968 -1.10389 98.68 1.28954 91.7856 9.45538C90.144 11.403 88.737 13.4914 85.3836 18.9118C78.8643 29.4946 75.2295 32.4981 69.531 31.9819C66.0837 31.6768 60.8542 29.4476 57.3601 26.8195C53.6784 24.0272 51.1223 21.0471 46.2446 13.7729C41.8358 7.17925 39.866 4.87969 37.1457 3.00249C35.598 1.94656 33.2764 0.937539 31.5176 0.515168C30.0636 0.186657 26.3819 -0.118389 25.7253 0.0458662Z" fill="currentColor"/>
</svg>

<svg xmlns="http://www.w3.org/2000/svg" width="245" height="45" fill="none"><path fill="currentColor" fill-rule="evenodd" d="M25.725.046c-.187.047-1.149.211-2.11.352-2.298.375-5.019 1.244-7.481 2.37-8.49 3.919-14.422 11.944-15.9 21.47-.469 3.121-.234 5.444.704 6.876.54.82 1.642 1.431 1.993 1.103.07-.07-.07-.94-.305-1.925-.515-2.229-.304-4.06.939-7.767 2.72-8.118 7.973-13.867 15.242-16.707 7.13-2.792 12.945-2.159 17.026 1.854 1.524 1.478 4.033 5.115 7.715 11.146 5.839 9.574 12.218 15.064 20.754 17.927 2.978.986 5.698 1.314 8.277.962 6.567-.868 10.319-4.529 17.753-17.364 1.383-2.393 3.26-5.326 4.15-6.5 1.783-2.393 4.456-4.716 6.426-5.631 3.377-1.549 8.208-2.042 10.975-1.15 3.564 1.173 5.112 3.097 10.388 12.93 5.933 11.051 11.116 15.932 17.33 16.26 3.471.165 5.839-.774 8.396-3.402 2.274-2.3 3.283-4.224 5.862-11.099 3.072-8.166 4.432-10.372 7.504-12.084 3.119-1.737 7.833-2.323 11.397-1.432 5.23 1.314 14.493 7.767 23.099 16.097 7.458 7.204 9.123 8.588 12.546 10.325.962.493 2.65 1.173 3.752 1.549 1.876.633 2.228.657 5.98.68 4.69 0 6.215-.329 10.084-2.23 1.29-.61 2.345-1.102 2.369-1.102.023.023-.071.939-.212 1.994-.304 2.511.047 6.078.774 7.744.587 1.337 1.009 1.642 1.548 1.032.68-.727 3.377-5.044 5.206-8.26.962-1.736 2.556-4.481 3.494-6.1 2.838-4.787 3.236-5.726 3.236-7.509 0-2.745-1.407-4.388-4.69-5.42-.891-.282-3.916-1.408-6.683-2.511-4.479-1.737-5.183-1.948-6.238-1.877-.727.07-1.477.305-1.923.61-.914.657-1.571 2.3-1.36 3.402.352 1.924 1.806 3.027 6.355 4.857 3.213 1.315 3.166 1.244 2.462 1.995-1.055 1.126-4.995 3.567-7.152 4.411-6.777 2.699-12.335 1.22-19.464-5.185-1.29-1.15-3.564-3.192-5.042-4.506-9.357-8.353-18.667-14.36-24.857-16.003-2.228-.587-7.2-.821-9.615-.446-3.94.61-8.302 2.605-10.905 4.975-2.579 2.37-4.197 5.21-7.246 12.718-2.275 5.608-2.978 6.992-4.268 8.377-1.97 2.112-3.494 2.37-6.121 1.056-3.001-1.502-5.792-4.904-10.154-12.437-4.268-7.32-6.425-10.183-9.286-12.225-7.481-5.35-19.769-2.956-26.663 5.21-1.642 1.947-3.049 4.035-6.402 9.456-6.52 10.583-10.154 13.586-15.853 13.07-3.447-.305-8.677-2.534-12.17-5.162-3.683-2.793-6.239-5.773-11.116-13.047-4.41-6.594-6.379-8.893-9.1-10.77C35.599 1.946 33.277.937 31.519.514c-1.454-.328-5.136-.633-5.793-.47Z" clip-rule="evenodd"/></svg>
